!!!!SEGMENT: pl-kk--kk-i-14--007_gorczycki-grzegorz-gerwazy--laetentur-caeli.krn
!!!id: 17xx:2195
!!!COM: Gorczycki, Grzegorz Gerwazy
!!!COM-rism: pe30009207
!!!CDT: ~1666-1734/04/30
!!!CNT: Polish
!!!OTL: Laetentur caeli
!!!PDT:
!!!SMS-siglum: PL-Kk
!!!SMS-shelfmark: Kk.I.14
!!!NIFC-rismID: 1001154387
!!!URL-scan: http://repozytorium.nifc.pl/skany/pl-kk-nut--i-14
!!!ONB-nifc: UWAGA: T (skan 0005-0006), B (0018-0019). Następny utwór: Alleluia Prophetae sancti
!!!SMS-variant:
!!!SMS-altvar:
**kern	**text	**kern	**text
*part2	*part2	*part1	*part1
*staff2	*staff2	*staff1	*staff1
*I"Baſſo.	*	*I"2do Tenore	*
*I'B	*	*I'T 2	*
*clefF4	*	*clefC1	*
*k[]	*	*k[]	*
*M2/1	*	*M2/1	*
*met(C)	*	*met(C)	*
*all\right	*	*all\right	*
=1-	=1-	=1-	=1-
00r	.	1g	Lae-
*	*	*2\right	*
.	.	2.a\	-ten-
.	.	4b\	.
=2-	=2-	=2-	=2-
.	.	4cc\	.
.	.	4a\	.
.	.	4b\	.
.	.	4cc\	.
.	.	4dd\	.
.	.	4cc\	.
.	.	4b\	.
.	.	4a\	.
=3-	=3-	=3-	=3-
00r	.	2g/	-tur
.	.	2cc\	Cae-
.	.	4b\	.
.	.	4g\	.
.	.	4a\	.
.	.	4b\	.
=4-	=4-	=4-	=4-
.	.	1cc	.
.	.	2b\	-li
.	.	2b\	lae-
=5-	=5-	=5-	=5-
!LO:TX:t=P:problem:kreska pseudotaktowa	!	!	!
0r	.	2.cc\	-ten-
.	.	4dd\	.
.	.	4ee\	.
.	.	4cc\	.
.	.	4dd\	.
.	.	4ee\	.
=6-	=6-	=6-	=6-
!	!	!LO:LB:g=original	!
1D	Lae-	2a\	-tur
.	.	4dd\	Cae-
.	.	4cc\	.
*2\right	*	*	*
2.E\	-ten-	4b	.
.	.	4a	.
.	.	1g	.
!LO:TX:t=P:problem:kreska pseudotaktowa	!	!	!
4F\	.	.	.
=7-	=7-	=7-	=7-
4G\	.	.	.
4E\	.	.	.
4F\	.	2f/	.
4G\	.	.	.
4A\	.	2e/	-li
4G\	.	.	.
4F\	.	2.f/	et
!LO:TX:t=P:problem:kreska pseudotaktowa	!	!	!
4E\	.	.	.
=8-	=8-	=8-	=8-
2D/	.	.	.
.	.	4g/	.
2D/	-tur	4a\	.
.	.	4b\	.
1A	Cae-	2cc\	.
.	.	2a\	ex-
=9-	=9-	=9-	=9-
2G\	-li	2b\	-ul-
!LO:TX:t=P:problem:kreska pseudotaktowa	!	!	!
2C/	et	2.cc\	.
2F\	ex-	.	.
.	.	4dd\	-tet
2G\	-ul-	2b\	ter-
=10-	=10-	=10-	=10-
2D/	-tet	2a\	-ra
2.G\	ter-	2g/	.
.	.	2r	.
4F\	.	.	.
*	*	*	*ij
4E\	.	1g	Lae-
!LO:TX:t=P:problem:kreska pseudotaktowa	!	!	!
4D\	.	.	.
=11-	=11-	=11-	=11-
!LO:LB:g=original	!	!	!
4C/	.	.	.
4BB/	.	.	.
!LO:TX:t=P:problem:kreska pseudotaktowa	!	!	!
2AA/	.	2a\	-ten-
2GG,</	-ra	4b\	-tur
.	.	4a\	Cae-
2.G\	et	4b\	.
.	.	4cc\	.
=12-	=12-	=12-	=12-
!	!	!LO:LB:g=original	!
.	.	2dd\	.
4F\	.	.	.
4E\	.	1ee	.
!LO:TX:t=P:problem:kreska pseudotaktowa	!	!	!
4D/	.	.	.
2C/	.	.	.
2C/	.	2.cc\	-li
=13-	=13-	=13-	=13-
2.AA/	ex-	.	.
.	.	4b\	et
.	.	2.a\	ex-
!LO:TX:t=P:problem:kreska pseudotaktowa	!	!	!
4BB/	-ul-	.	.
2C/	.	.	.
.	.	4g/	-ul-
2GG/	-tet	1g	-tet
=14-	=14-	=14-	=14-
1D	ter-	.	.
.	.	2f/	ter-
!LO:TX:t=P:problem:kreska pseudotaktowa	!	!	!
1GG	-ra	0g	-ra
*	*	*	*Xij
=15-	=15-	=15-	=15-
1G	Com-	.	.
2E\	-mo-	00r	.
2E\	-ve-	.	.
=16-	=16-	=16-	=16-
1F	-a-	.	.
2D/	-tur	.	.
4G\	ma-	.	.
!LO:TX:t=P:problem:kreska pseudotaktowa	!	!	!
4F\	.	.	.
=17-	=17-	=17-	=17-
4E\	.	.	.
4D\	.	.	.
!LO:LB:g=original	!	!	!
2.G\	.	.	.
.	.	1r	.
8F\L	.	.	.
8E\J	.	.	.
2F#X\	-re	.	.
=18-	=18-	=18-	=18-
!LO:TX:t=P:problem:kreska pseudotaktowa	!	!	!
1G	.	1dd	Com-
00r	.	2b\	-mo-
.	.	2b\	-ve-
=19-	=19-	=19-	=19-
.	.	1cc	-a-
.	.	2a\	-tur
.	.	2.dd\	Ma-
=20-	=20-	=20-	=20-
.	.	.	.
.	.	4cc\	.
.	.	4b\	.
.	.	4a\	.
1r	.	4g\	.
.	.	4a\	.
.	.	4b\	.
.	.	4g\	.
=21-	=21-	=21-	=21-
2r	.	1a	.
!LO:TX:t=P:problem:kreska pseudotaktowa	!	!	!
2D/	et	.	.
4G\	ple-	2b\	-re
4Fny\	.	.	.
!	!	!LO:LB:g=original	!
4E\	.	2b\	et
4D/	.	.	.
=22-	=22-	=22-	=22-
2C/	.	2cc\	ple-
!LO:TX:t=P:problem:kreska pseudotaktowa	!	!	!
2BB/	-ni-	2dd\	-ni-
2C/	-tu-	2ee\	-tu-
2G\	-do	2dd\	-do
=23-	=23-	=23-	=23-
1A	e-	1cc	e-
2G\	-ius	2b\	-ius
*	*ij	*	*ij
!LO:TX:t=P:problem:kreska pseudotaktowa	!	!	!
2G\	Com-	2g/	Com-
=24-	=24-	=24-	=24-
2D\	-mo-	1a	-mo-
2F\	-ve-	.	.
4C/	-a-	2g/	-ve-
4D/	-tur	.	.
4E\	et	2.g/	-a-
4F\	ple-	.	.
=25-	=25-	=25-	=25-
!LO:LB:g=original	!	!	!
2.G\	-ni-	.	.
.	.	4a\	.
.	.	4b\	.
!LO:TX:t=P:problem:kreska pseudotaktowa	!	!	!
8F\L	-tu-	4cc\	.
8E\J	.	.	.
4D\	-do	1dd	-tur
4E\	e-	.	.
4F\	-ius	.	.
*	*Xij	*	*
4G\	.	.	.
=26-	=26-	=26-	=26-
2A/	.	2cc#X\	Ma-
2B-X/	.	2.dd\	.
!LO:TX:t=P:problem:kreska pseudotaktowa	!	!	!
1A	.	.	.
.	.	8cc#\L	.
.	.	8b\J	.
.	.	2cc#\	.
=27-	=27-	=27-	=27-
2D,</	.	2dd\	-re
*	*	*	*Xij
!LO:TX:t=P:problem:kreska pseudotaktowa	!	!LO:PB:g=original	!
2D/	gau-	2a\	gau-
4G\	-de-	4b\	-de-
4A\	.	4ccny\	.
4Bny\	.	4dd\	.
4G\	.	4b\	.
=28-	=28-	=28-	=28-
4A\	.	2.cc\	.
4B\	.	.	.
1c	.	.	.
.	.	4dd\	.
.	.	2ee\	-bunt
!LO:TX:t=P:problem:kreska pseudotaktowa	!	!	!
2B\	-bunt	2dd\	.
=29-	=29-	=29-	=29-
1A	cam-	4cc\	Cam-
.	.	4b\	.
.	.	4cc\	.
.	.	4a\	.
2G,\	-pi	4b\	.
.	.	4g/	.
*	*ij	*	*
2C/	gau-	2cc\	-pi
=30-	=30-	=30-	=30-
4G\	-de-	1b	.
4A\	.	.	.
4B\	.	.	.
!LO:TX:t=P:problem:kreska pseudotaktowa	!	!	!
4G\	.	.	.
!LO:LB:g=original	!	!	!
4A\	.	2r	.
4B\	.	.	.
*	*	*	*ij
2c\	.	2g/	gau-
=31-	=31-	=31-	=31-
*lig	*	*	*
1A	-bunt	4a\	.
.	.	4b\	.
.	.	4cc\	.
.	.	4a\	.
1G	.	4b\	.
.	.	4cc\	.
.	.	4dd\	.
.	.	4g/	.
*Xlig	*	*	*
=32-	=32-	=32-	=32-
*lig	*	*	*
1F	cam-	2a\	-de-
.	.	2a\	-bunt
!LO:TX:t=P:problem:kreska pseudotaktowa	!	!LO:LB:g=original	!
1G	.	1g	cam-
*Xlig	*	*	*
=33-	=33-	=33-	=33-
!LO:TX:t=P:problem:kreska pseudotaktowa	!	!	!
1C	-pi	1g	pi
*	*Xij	*	*Xij
2r	.	1g	et
2C/	et	.	.
=34-	=34-	=34-	=34-
1.F	om-	1.a	om-
2F\	-ni-	2a\	-ni-
=35-	=35-	=35-	=35-
!LO:TX:t=P:problem:kreska pseudotaktowa	!	!	!
1C	-a	2g/	-a
.	.	1cc	quae
(2.G\	quae	.	.
.	.	2b\	in
4F\)	.	.	.
=36-	=36-	=36-	=36-
2E\	.	2cc\	e-
2F\	in	2a\	-is
2D/	e-	1dd	Sunt
2D/	-is	.	.
=37-	=37-	=37-	=37-
!LO:TX:t=P:problem:kreska pseudotaktowa	!	!	!
1C	Sunt	2r	.
.	.	1g	et
*	*ij	*	*
1C	quae	.	.
.	.	1cc	.
=38-	=38-	=38-	=38-
2.F\	in	.	.
.	.	2cc\	om-
4F\	e-	.	.
!LO:LB:g=original	!	!	!
2F\	-is	0a	-nia
2F\	sunt	.	.
*	*Xij	*	*
=39-	=39-	=39-	=39-
2.D/	.	.	.
!LO:TX:t=P:problem:kreska pseudotaktowa	!	!	!
4D/	.	.	.
1BB-X	.	2a\	.
.	.	1b-X	quae
=40-	=40-	=40-	=40-
1F	.	.	.
.	.	2a\	in
!LO:TX:t=P:problem:kreska pseudotaktowa	!	!	!
1G	.	0g	e-
=41-	=41-	=41-	=41-
1.C	.	.	.
.	.	1g	-is
2C/	.	.	.
=42-	=42-	=42-	=42-
!	!	!LO:TX:a:t=P:problem:# above	!
0D	.	0f#X	Sunt
=43-	=43-	=43-	=43-
*M2/1	*	*M2/1	*
*met(C|)	*	*met(C)	*
!	!	!LO:LB:g=original	!
00r	.	2r	.
.	.	1a	Tunc
.	.	2cc\	ex-
=44-	=44-	=44-	=44-
.	.	2bny\	-ul-
.	.	2.dd\	-ta-
.	.	4cc\	.
.	.	4a\	.
.	.	4b\	.
=45-	=45-	=45-	=45-
0r	.	4cc\	.
.	.	4b\	.
.	.	4g\	.
.	.	4a\	.
.	.	4b\	.
.	.	4cc\	.
.	.	2.dd\	.
=46-	=46-	=46-	=46-
!LO:TX:t=P:problem:kreska pseudotaktowa	!	!	!
1r	.	.	.
.	.	8cc\L	.
.	.	8b\J	.
.	.	2cc\	-bunt
1D	Tunc	1dd	.
=47-	=47-	=47-	=47-
2F\	ex-	00r	.
!LO:TX:t=P:problem:kreska pseudotaktowa	!	!	!
2E\	-ul-	.	.
2.G\	-ta-	.	.
4F\	.	.	.
=48-	=48-	=48-	=48-
4D\	.	.	.
4E\	.	.	.
4F\	.	.	.
4E\	.	.	.
!LO:LB:g=original	!	!	!
4C/	.	.	.
4D/	.	.	.
4E\	.	.	.
!LO:TX:t=P:problem:kreska pseudotaktowa	!	!	!
4F\	.	.	.
=49-	=49-	=49-	=49-
4G\	.	0r	.
4F\	.	.	.
4F\	.	.	.
8E\L	.	.	.
8D\J	.	.	.
1E	-bunt	.	.
=50-	=50-	=50-	=50-
!LO:TX:t=P:problem:kreska pseudotaktowa	!	!	!
1D	.	2r	.
.	.	1a	om-
1.F	om-	.	.
.	.	2a\	-ni-
=51-	=51-	=51-	=51-
.	.	1.a	-a
2F\	-ni-	.	.
!LO:TX:t=P:problem:kreska pseudotaktowa	!	!	!
1A	-a	.	.
.	.	1cc	li-
=52-	=52-	=52-	=52-
1G	li-	.	.
.	.	2b\	-gna
!	!	!LO:LB:g=original	!
2F\	-gna	2cc\	Syl-
2D/	Syl-	2.dd\	-va-
=53-	=53-	=53-	=53-
*lig	*	*	*
1A	-va-	.	.
.	.	4cc\	.
.	.	2.cc\	.
1G	.	.	.
.	.	8b\L	.
.	.	8a\J	.
.	.	2b\	.
*Xlig	*	*	*
=54-	=54-	=54-	=54-
!LO:TX:t=P:problem:kreska pseudotaktowa	!	!	!
1C	-rum	0cc	-rum
2r	.	.	.
2AA/	a	.	.
=55-	=55-	=55-	=55-
1.D	fa-	2r	.
.	.	2a\	a
.	.	1.dd	fa-
2D/	-ci-	.	.
=56-	=56-	=56-	=56-
!LO:TX:t=P:problem:kreska pseudotaktowa	!	!	!
1BB-X	-e	.	.
.	.	2dd\	-cie
!LO:LB:g=original	!	!	!
2.F\	Do-	2cc\	.
.	.	2.a\	Do-
4G\	.	.	.
=57-	=57-	=57-	=57-
2A\	-mi-	.	.
.	.	4b\	.
!LO:TX:t=P:problem:kreska pseudotaktowa	!	!	!
2A\	.	4cc\	.
.	.	4a\	.
2G,\	-ni	2b\	.
4C/	qui-	2cc\	.
4D/	.	.	.
=58-	=58-	=58-	=58-
4E\	.	1b	-mi-
4F\	.	.	.
!LO:TX:t=P:problem:kreska pseudotaktowa	!	!	!
2G\	-a	.	.
*	*ij	*	*
4D\	qui-	0a	-ni
4E\	.	.	.
4F\	.	.	.
4G\	.	.	.
=59-	=59-	=59-	=59-
2A\	-a	.	.
*	*Xij	*	*
4AA/	ve-	.	.
!LO:TX:t=P:problem:kreska pseudotaktowa	!	!	!
4BBny/	.	.	.
4C/	.	0.g	qui-
4D/	.	.	.
4E\	.	.	.
4F\	.	.	.
=60-	=60-	=60-	=60-
2.G\	.	.	.
4F\	.	.	.
1E	.	.	.
=61-	=61-	=61-	=61-
!LO:TX:t=P:problem:kreska pseudotaktowa	!	!	!
1D,<	-nit	1fny	-a
1r	.	1e	Venit
=62-	=62-	=62-	=62-
!	!	!LO:LB:g=original	!
1.D	quo-	1.f#X	quo-
2D/	-ni-	2f#/	-ni-
=63-	=63-	=63-	=63-
!LO:LB:g=original	!	!	!
2.G\	-am	0g	-am
!LO:TX:t=P:problem:kreska pseudotaktowa	!	!	!
4F\	.	.	.
4E\	.	.	.
4D/	.	.	.
4C/	.	.	.
4BB/	.	.	.
=64-	=64-	=64-	=64-
4AA/	.	1cc	ve-
4BB/	.	.	.
!LO:TX:t=P:problem:kreska pseudotaktowa	!	!	!
2C/	.	.	.
1GG	ve-	1b	-nit
=65-	=65-	=65-	=65-
!LO:TX:t=P:problem:kreska pseudotaktowa	!	!	!
1AA	-nit	2r	.
.	.	1a	in-
2r	.	.	.
1D	iu-	2a\	-di-
=66-	=66-	=66-	=66-
.	.	1f#X	-ca-
2D/	-di-	.	.
2BB/	-ca-	1g	-re
!LO:TX:t=P:problem:kreska pseudotaktowa	!	!	!
2C/	-re	.	.
=67-	=67-	=67-	=67-
1AA	ter-	1a	ter-
!LO:TX:t=P:problem:kreska pseudotaktowa	!	!	!
1GG	-ram	1d	-ram
=68-	=68-	=68-	=68-
1G	iu-	00r	.
2G\	-di-	.	.
1E	-ca-	.	.
=69-	=69-	=69-	=69-
.	.	.	.
2F\	-re	.	.
!LO:PB:g=original	!	!	!
4D\	ter-	.	.
4E\	.	.	.
4F\	.	.	.
!LO:TX:t=P:problem:kreska pseudotaktowa	!	!	!
4G\	.	.	.
=70-	=70-	=70-	=70-
4A\	.	1r	.
4D/	.	.	.
2.G\	.	.	.
.	.	2r	.
8F\L	.	.	.
8E\J	.	.	.
2F\	.	1dd	iu-
=71-	=71-	=71-	=71-
!LO:TX:t=P:problem:kreska pseudotaktowa	!	!	!
0G	-ram	.	.
.	.	2dd\	-di-
.	.	1b	-ca-
=72-	=72-	=72-	=72-
0r	.	2cc\	-re
.	.	2.a\	ter-
.	.	4g/	.
.	.	4a\	.
.	.	4b\	.
=73-	=73-	=73-	=73-
1r	.	4cc\	.
.	.	4dd\	.
!	!	!LO:LB:g=original	!
.	.	2b\	.
2r	.	2a\	-ram
*	*	*	*ij
2D/	iu-	2a\	iu-
=74-	=74-	=74-	=74-
2G\	-di-	2b\	-di-
1G	-ca-	2.b\	-ca-
.	.	4a\	.
!LO:TX:t=P:problem:kreska pseudotaktowa	!	!	!
2C/	-re	1g	.
=75-	=75-	=75-	=75-
1D	ter-	.	.
.	.	2fny/	-re
2GG,</	-ram	2g/	ter-
*	*ij	*	*
1G	iu-	2d/	-ram
*	*	*	*Xij
=76-	=76-	=76-	=76-
.	.	2.g/	iu-
!LO:TX:t=P:problem:kreska pseudotaktowa	!	!	!
2G\	-di-	.	.
.	.	4g/	-di-
2E\	-ca-	2g/	-ca-
2F\	-re	2a/	-re
=77-	=77-	=77-	=77-
1D	ter-	1f	ter-
1C,<	-ram	2e/	-ram
*	*	*	*ij
.	.	1cc	iu-
=78-	=78-	=78-	=78-
!LO:LB:g=original	!	!	!
2.G\	in-	.	.
.	.	2b\	-di-
4G\	-di-	.	.
2A\	-ca-	2a\	-ca-
2F\	-re	2a\	-re
=79-	=79-	=79-	=79-
*lig	*	*	*
1G	ter-	2.g/	ter-
.	.	4f/	.
!	!	!LO:LB:g=original	!
1C	.	1e	.
*Xlig	*	*	*
=80-	=80-	=80-	=80-
!LO:TX:t=P:problem:kreska pseudotaktowa	!	!	!
1D	-ram	2d\	-ram
*	*	*	*Xij
.	.	1dd	iu-
2r	.	.	.
1G	iu-	2dd\	-di-
=81-	=81-	=81-	=81-
.	.	1b	-ca-
2G\	-di-	.	.
2E\	-ca-	2cc\	-re
2F\	-re	1a	ter-
=82-	=82-	=82-	=82-
1D	ter-	.	.
.	.	4g/	.
.	.	4f/	.
!LO:TX:t=P:problem:kreska pseudotaktowa	!	!	!
1C	-ram	2e/	-ram
*	*Xij	*	*ij
.	.	2ee\	iu-
=83-	=83-	=83-	=83-
0r	.	2dd\	-di-
.	.	2.ee\	-ca-
.	.	4dd\	.
.	.	1cc	.
=84-	=84-	=84-	=84-
1r	.	.	.
.	.	2b\	-re
2r	.	1cc	ter-
1A	iu-	.	.
=85-	=85-	=85-	=85-
.	.	1a	-ram
*	*	*	*Xij
2A\	-di-	.	.
2F#X\	-ca-	2r	.
2G\	-re	1g	iu-
=86-	=86-	=86-	=86-
1E	ter-	.	.
.	.	2e\	-di-
!LO:TX:t=P:problem:kreska pseudotaktowa	!	!LO:LB:g=original	!
1D	-ram	1a	-ca-
=87-	=87-	=87-	=87-
*	*ij	*	*
!LO:LB:g=original	!	!	!
1G	iu-	2b-X\	-re-
.	.	2.b-\	-ter-
!LO:TX:t=P:problem:kreska pseudotaktowa	!	!	!
1D	-di-	.	.
.	.	4a\	.
.	.	2.a\	.
=88-	=88-	=88-	=88-
2E\	-ca-	.	.
.	.	4g/	.
2C/	-re	2.g/	.
1D	ter-	.	.
.	.	8f/L	.
.	.	8e/J	.
.	.	2f/	-ram
=89-	=89-	=89-	=89-
0GG	-ram	0g	.
*	*Xij	*	*
=-	=-	=-	=-
*-	*-	*-	*-
!!!system-decoration: (s1,s2)
!!!RDF**kern: < = below
!!!RDF**kern: > = above
!!!ENC: Marta Chmielewska
!!!END: 2021-07-20
!!!ENC:Anastazja Marusiak
!!!END:2021-06-30
